src/assets/logo/logo.svg

<svg width="168" height="291" viewBox="0 0 168 291" fill="none" xmlns="http://www.w3.org/2000/svg">
<circle cx="82.9512" cy="264.172" r="26.8281" fill="#132743"/>
<ellipse cx="83.5" cy="88" rx="65.5" ry="59" fill="#FCFDFF"/>
<path d="M83.3641 0.516113C37.2465 0.516113 0.019043 37.7436 0.019043 83.8612C0.019043 139.425 83.26 222.643 83.26 222.643C83.26 222.643 166.709 139.425 166.709 83.8612C166.709 37.7436 129.482 0.516113 83.3641 0.516113ZM83.3641 28.2978C114.202 28.2978 138.928 53.3013 138.928 83.8612C138.928 114.699 114.202 139.425 83.3641 139.425C52.8043 139.425 27.8007 114.699 27.8007 83.8612C27.8007 53.3013 52.8043 28.2978 83.3641 28.2978Z" fill="#FFB5B5"/>
<path d="M167.136 83.2597C167.136 129.243 111.938 193.348 83.2597 222.643C190.66 -99.3956 12.9995 148.533 0 83.2597C0 37.2766 37.4147 0 83.5681 0C129.721 0 167.136 37.2766 167.136 83.2597Z" fill="#132743"/>
</svg>

<svg xmlns="http://www.w3.org/2000/svg" width="168" height="291" fill="none"><circle cx="82.951" cy="264.172" r="26.828" fill="#132743"/><ellipse cx="83.5" cy="88" fill="#FCFDFF" rx="65.5" ry="59"/><path fill="#FFB5B5" d="M83.364.516C37.246.516.02 37.744.02 83.861c0 55.564 83.241 138.782 83.241 138.782s83.449-83.218 83.449-138.782c0-46.117-37.227-83.345-83.345-83.345m0 27.782c30.838 0 55.564 25.003 55.564 55.563a55.37 55.37 0 0 1-55.564 55.564c-30.56 0-55.563-24.726-55.563-55.564 0-30.56 25.003-55.563 55.563-55.563"/><path fill="#132743" d="M167.136 83.26c0 45.983-55.198 110.088-83.876 139.383C190.66-99.396 13 148.533 0 83.26 0 37.277 37.415 0 83.568 0s83.568 37.277 83.568 83.26"/></svg>
